engine-ui/packages/console-ui/dist/public/rdos/img/table.svg

<?xml version="1.0" standalone="no"?><!DOCTYPE svg PUBLIC "-//W3C//DTD SVG 1.1//EN" "http://www.w3.org/Graphics/SVG/1.1/DTD/svg11.dtd"><svg t="1513238960481" class="icon" style="" viewBox="0 0 1024 1024" version="1.1" xmlns="http://www.w3.org/2000/svg" p-id="3622" xmlns:xlink="http://www.w3.org/1999/xlink" width="16" height="16"><defs><style type="text/css"></style></defs><path d="M513.920746 156.407236c127.82834 0 255.656681-0.029676 383.485021 0.013303 44.089148 0.019443 59.20952 14.925944 59.214636 58.729589 0.013303 219.973994-0.01535 439.949011-0.146333 659.925051-0.023536 44.347021-14.682397 59.243289-58.461483 59.253522-257.886465 0.086981-515.770883 0.076748-773.657348 0.010233-40.815591-0.010233-56.814983-15.59621-56.849776-56.475246-0.168846-222.214011-0.184195-444.422905 0.019443-666.636916 0.038886-39.368636 16.110933-54.722322 56.217373-54.760185C253.806543 156.318208 383.862621 156.411329 513.920746 156.407236L513.920746 156.407236zM346.408591 726.56889 125.540228 726.56889l0 149.937894 220.868363 0L346.408591 726.56889 346.408591 726.56889zM621.99416 877.371478 621.99416 727.267808 402.38958 727.267808l0 150.10367L621.99416 877.371478 621.99416 877.371478zM677.580153 876.17114l221.005486 0L898.585639 726.859509 677.580153 726.859509 677.580153 876.17114 677.580153 876.17114zM125.914758 525.313214l0 148.592246 219.85836 0L345.773118 525.313214 125.914758 525.313214 125.914758 525.313214zM677.386748 675.854858c72.062246 0 141.608182 0.165776 211.144908-0.452301 3.749394-0.033769 10.622942-6.600325 10.686387-10.208503 0.723477-46.406936 0.474814-92.832292 0.474814-139.0448L677.386748 526.149255C677.386748 576.25135 677.386748 624.294552 677.386748 675.854858L677.386748 675.854858zM401.344784 674.15003l220.926692 0L622.271476 526.003945 401.344784 526.003945 401.344784 674.15003 401.344784 674.15003zM345.967546 474.234885 345.967546 324.793294 124.181277 324.793294c0 46.535873-0.452301 90.989317 0.645706 135.404899 0.116657 4.790096 9.137101 13.367449 14.110369 13.430894C207.186759 474.52755 275.459702 474.234885 345.967546 474.234885L345.967546 474.234885zM401.884067 472.204645l219.848127 0L621.732194 324.331783 401.884067 324.331783 401.884067 472.204645 401.884067 472.204645zM898.129244 472.830909 898.129244 324.112796 677.867702 324.112796l0 148.718113L898.129244 472.830909 898.129244 472.830909zM898.129244 472.830909" p-id="3623" fill="#2491F7"></path></svg>

<svg class="icon" viewBox="0 0 1024 1024" xmlns="http://www.w3.org/2000/svg" width="16" height="16"><defs><style/></defs><path d="M513.92 156.407c127.83 0 255.657-.03 383.486.014 44.089.019 59.21 14.925 59.214 58.73.014 219.973-.015 439.948-.146 659.924-.023 44.347-14.682 59.243-58.461 59.254-257.887.087-515.771.076-773.658.01-40.815-.01-56.815-15.596-56.85-56.475-.168-222.214-.184-444.423.02-666.637.039-39.369 16.11-54.723 56.217-54.76 130.065-.149 260.12-.056 390.179-.06zM346.41 726.57H125.54v149.938h220.87V726.569zm275.584 150.8V727.268H402.39V877.37h219.604zm55.586-1.2h221.006V726.86H677.58v149.31zM125.915 525.313v148.592h219.858V525.313H125.915zm551.472 150.542c72.062 0 141.608.166 211.145-.452 3.749-.034 10.623-6.6 10.686-10.209.724-46.407.475-92.832.475-139.045H677.387v149.706zm-276.042-1.705H622.27V526.004H401.345V674.15zm-55.377-199.915V324.793H124.18c0 46.536-.452 90.99.646 135.405.117 4.79 9.137 13.368 14.11 13.431 68.25.899 136.523.606 207.03.606zm55.916-2.03h219.848V324.332H401.884v147.873zm496.245.626V324.113H677.868V472.83h220.261zm0 0" fill="#2491F7"/></svg>
